kazanexpo/static/img/minified-svg/calendar.svg

<svg xmlns="http://www.w3.org/2000/svg" width="18" height="18" viewBox="0 0 18 18"><path d="M16.714 1.286h-2.571V0h-2.572v1.286H6.429V0H3.857v1.286H1.286A1.286 1.286 0 000 2.571v14.143A1.286 1.286 0 001.286 18h11.571a1.286 1.286 0 00.909-.377l3.857-3.857a1.286 1.286 0 00.377-.909V2.571a1.286 1.286 0 00-1.286-1.285zM2.571 6.429h12.858v5.143h-2.572a1.286 1.286 0 00-1.286 1.286v2.571h-9z"/></svg>

<svg xmlns="http://www.w3.org/2000/svg" width="18" height="18" viewBox="0 0 18 18"><path d="M16.714,1.286H14.143V0H11.571V1.286H6.429V0H3.857V1.286H1.286A1.286,1.286,0,0,0,0,2.571V16.714A1.286,1.286,0,0,0,1.286,18H12.857a1.286,1.286,0,0,0,.909-.377l3.857-3.857A1.286,1.286,0,0,0,18,12.857V2.571A1.286,1.286,0,0,0,16.714,1.286ZM2.571,6.429H15.429v5.143H12.857a1.286,1.286,0,0,0-1.286,1.286v2.571h-9Z"/></svg>
